!!!SOCIAL_FUNCTION:	rain dance song
!!!PDT:	1957
!!!OTL: No_73_At_the_Rainbow_Spring.krn
!!!LING_GROUP: Keresan
!!!LANG: Tone
!!!REG: Southwest
**kern	**dynam
*staff1	*staff1
=1-	=1-
*clefF4	*clefF4
*k[b-e-]	*k[b-e-]
*M2/4	*M2/4
4r	.
8.r	.
16F\	.
=2!|:	=2!|:
8.F\L	.
16F\Jk	.
16G\LL	.
16F\J	.
8D\J	.
=3	=3
*M3/4	*M3/4
8.F/L	.
16C/Jk	.
16BB-/LL	.
16C/	.
16BB-/	.
16BB-/JJ	.
8BB-/	.
16r	.
16F\	.
=4	=4
*M3/8	*M3/8
8.F\L	.
16F\K	.
8F\J	.
=5	=5
*M5/8	*M5/8
12F\L	.
12D\	.
12D\J	.
12D/L	.
12C/	.
12C/J	.
16BB-/	.
16r	.
=6	=6
*M2/4	*M2/4
8.C/L	.
16C/Jk	.
12BB-/L	.
12GG/	.
12GG/J	.
=7	=7
8.GG/L	.
16GG/Jk	.
16BB-/LL	.
16GG/J	.
8GG/J	.
=8	=8
*M3/4	*M3/4
8.BB-/L	.
16BB-/Jk	.
16BB-/LK	.
8.GG/J	.
8FF/L	.
8GG/J	.
=9	=9
*M2/4	*M2/4
8.FF/L	.
16BB-/Jk	.
4FF/	.
=10	=10
*M3/8	*M3/8
16FF/	.
16r	.
8.GG/L	.
16GG/Jk	.
=11	=11
*M2/4	*M2/4
8.FF/L	.
16GG/Jk	.
4FF/	.
=12	=12
24FF/LK	.
12FF/	.
12FF/J	.
24r	.
8.r	.
16FF/	.
=13	=13
*M3/8	*M3/8
8.C/L	.
16C/K	.
8BB-/J	.
=14	=14
*M3/4	*M3/4
8.C/L	.
16C/Jk	.
12C/L	.
12BB-/	.
12BB-/J	.
16BB-/LL	.
16GG/	.
16GG/	.
16FF/JJ	.
=15	=15
(4BB-/	.
8FF/L)	.
8FF/J	.
8.r	.
16BB-/	.
=16	=16
*M2/4	*M2/4
8.FF/L	.
16FF/Jk	.
8FF/L	.
8FF/J	.
=17	=17
*M3/4	*M3/4
16GG/LL	.
16FF/J	.
8FF/J	.
16GG/LL	.
16FF/	.
16FF/	.
16FF/JJ	.
8FF/	.
8r	.
=18	=18
16GG/LL	.
16FF/	.
16FF/	.
16FF/JJ	.
16GG/LL	.
16FF/	.
16FF/	.
16FF/JJ	.
8FF/	.
16r	.
16F\	.
=19:|!|:	=19:|!|:
*M2/4	*M2/4
16G\LL	.
16G\J	.
8G\J	.
8G\L	.
16A\L	.
16G\JJ	.
=20	=20
*M3/4	*M3/4
8B-\L	.
8B-\J	.
8B-\L	.
8B-\J	.
16B-\LL	.
16G\J	.
8F\J	.
=21	=21
16G\LL	.
16G\J	.
8F\J	.
8F\L	.
16G\L	.
16G\JJ	.
8F\	.
8r	.
=22	=22
*M2/4	*M2/4
16G\LL	.
16G\J	.
8G\J	.
8G\L	.
16A\L	<
16G\JJ	.
=23	=23
*M3/4	*M3/4
8B-\L	.
8B-\J	.
8B-\L	.
8B-\J	.
16B-\LL	.
16G\J	.
8F\J	.
=24	=24
16G\LL	.
16G\J	.
8F\J	.
8F\L	.
16G\L	.
16G\JJ	.
8F\	.
8r	.
=25	=25
16G\LL	.
16G\J	.
8F\J	.
8F\L	.
16G\L	.
16G\JJ	.
8F\	.
8r	.
=26	=26
*M2/4	*M2/4
16G\LK	.
8G\	.
16A\Jk	.
16A\LL	.
16G\	.
16F\	.
16D\JJ	.
=27	=27
16F\LK	.
8D\	.
16D\Jk	.
16F\LL	.
16D\	.
16D\	.
16BB-\JJ	.
=28	=28
*M3/4	*M3/4
16D/LK	.
8BB-/	.
16BB-/Jk	.
16BB-/LL	.
16GG/	.
16BB-/	.
16GG/JJ	.
8GG/	.
8r	.
=29	=29
*M2/4	*M2/4
8C/L	.
8C/J	.
16BB-/LL	.
16GG/	.
16BB-/	.
16GG/JJ	.
=30	=30
8GG/L	.
8GG/J	.
16GG/LL	.
16FF/	.
16FF/JJ	.
16r	.
=31	=31
16GG/LL	.
16FF/	.
16FF/JJ	.
16r	.
4r	.
=32	=32
*M3/8	*M3/8
8F\L	.
16F\L	.
16A\J	.
8E-\J	.
=33	=33
*M5/8	*M5/8
16F\LL	.
16F\J	.
8F\	.
16F\L	.
16A\	.
16A\	.
16F\J	.
8F\J	.
=34	=34
*M2/4	*M2/4
16A\LL	.
16F\	.
16E-\	.
16C\JJ	.
16E-/LL	.
16C/J	.
8C/J	.
=35	=35
16E-/LL	.
16C/	.
16C/	.
16AA/JJ	.
16C/LL	.
16AA/J	.
8AA/J	.
=36	=36
16AA/LL	.
16FF/	.
16AA/	.
16FF/JJ	.
8FF/	.
8r	.
=37	=37
*M3/8	*M3/8
8BB-/L	.
8BB-/	.
16AA/L	.
16FF/JJ	.
=38	=38
*M3/4	*M3/4
16AA/LL	.
16FF/J	.
8FF/J	.
8FF/L	.
8FF/J	.
4r	.
=39	=39
16BB-/LL	.
16FF/	.
16FF/JJ	.
16r	.
16AA/LL	.
16FF/	.
16FF/JJ	.
16r	.
4r	.
==:|!	==:|!
*-	*-
